X: 6912
T: Cheer Up Old Hag
R: jig
M: 6/8
K: Gmajor
|:BGF G2 B|ded dcA|BAB GBd|e2 f g3|
GBd g2 e|fed cBA|BGE EDE|c3 B2A:|
|:BGE EDE|GED D2c|BGE EDE|c3 B2A|
BGE EDE|GED DEF|GBA GBA|GED D2c:|

